file/etihad-airways.svg

<svg clip-rule="evenodd" fill-rule="evenodd" stroke-linecap="round" stroke-linejoin="round" stroke-miterlimit="1.5" viewBox="0 0 560 400" xmlns="http://www.w3.org/2000/svg"><g fill="none"><path d="m47.619 137.859h478.532v75.798h-478.532z" stroke="#00e0ff" stroke-width="2.24" transform="matrix(1.04486638704 0 0 1.1873624952 -19.7552200864 -8.6883482376)"/><path d="m145.00102649277 65.00019821608h270.00090960667v270.00090960667h-270.00090960667z" stroke="#ffad00" stroke-width="2.49523032167"/><circle cx="280.001978264" cy="200.001460872" r="150.00064585923" stroke="#ffad00" stroke-width="2.49873419158"/><path d="m107.614 112.483h222.908v167.787h-222.908z" stroke="#e0f" stroke-width="1.76" transform="matrix(1.6150160376 0 0 1.1919929448 -73.79795824 -34.077983832)"/><path d="m107.614 112.483h222.908v167.787h-222.908z" stroke="#00ff9f" stroke-width="1.76" transform="matrix(0 1.6150160376 -1.1919929448 0 514.08000992 -153.79825824)"/></g><g fill="#a18b5d" fill-rule="nonzero" transform="matrix(.975345 0 0 .975345 84.5895 59.2577)"><path d="m71.5 152.5 1 .3h.1l2-1c.7-.4 1.3-.6 2-.6h27.6v37l-.2.6c-.1.1-.3.3-.4.3l-1.3.8-.1.1v.9h14.7v-.9l-1.5-.9-.5-.4v-.5-37h24.5c1 .1 1.3.4 1.3.6v1h.9l7-8.6h-70.5zm2.4 17.7-.1.3h1.2l6.9-8.6h-48.7l-4.6 6.8h44c1.1.1 1.4.4 1.4.6v.1zm14.4 13.4c-.4.3-.8.4-1 .5l-33.9.1c-7.9 0-13.8-1-17.6-3-5.9-3.1-8.8-7.5-8.8-13.5 0-2.7.8-5.3 2.3-7.6 2.9-4.3 7.4-7.1 13.5-8.2 1.7-.3 3-.5 4-.6 1.8-.1 3.9-.1 6.2-.1h10.5c1.1.1 1.4.4 1.4.6v.1l-.1.5-.1.3h1l7-8.5h-19.7c-4.8 0-8.5.2-11.1.5-1.4.2-2.7.4-3.9.7-3.3.7-6.6 2-9.8 3.8-5 2.8-8.6 6.4-10.7 10.8-1.2 2.4-1.7 5.2-1.7 8.1 0 7.5 4 13.5 12 17.8 3.7 2 7.7 3.4 12.1 4.1 3.3.5 7.9.8 13.6.8h31.4l7-8.6h-1.5zm63.8-38.3 1.4.9c.5.3.7.6.7.9v41.1l-.2.7c-.1.1-.3.3-.5.4l-1.3.8-.1.1v.9h14.6v-.9l-1.3-.9c-.3-.2-.4-.3-.4-.4l-.1-41.8.2-.6.4-.3 1.1-.8.1-.1v-.9h-14.6zm107.8 5.5 7.1 7.5 8 8.1h-13.3l-6.6 7.2.8.4.1.1 1.6-.8c.2-.1.4-.2.5-.2h23.1l14.8 15.6c.1.1.2.1.2.3l.2.5c0 .2-.4.5-1.8.5h-.3v1h16l-44.3-46.6zm124.1 11.8-.3.1.3-.1c-1.8-5.6-5.8-10.2-12.1-13.6-5.6-3.1-13.8-4.7-24.5-4.7h-41.2v.9l1.4.9c.2.2.4.3.4.4v4.6h39.4c8.1 0 14 1.1 17.6 3.2 5.7 3.4 8.6 7.8 8.6 13.4 0 2.9-.7 5.4-2.2 7.7s-3.7 4.2-6.7 5.7c-3.8 2-9.7 3-17.5 3h-21v-30.5h-10.8l.1 34.6-.2.6c-.1.1-.2.2-.4.4l-1.2.8-.1.1v.9h33.6c6.6 0 11.6-.4 15.2-1.1 4.9-1 9.2-2.7 12.9-5.2s6.4-5.4 7.9-8.6c1.1-2.4 1.7-5 1.7-7.7-.1-2.1-.4-4-.9-5.8m-147.9 27.3c-.7-.1-.9-.3-1-.5l28.7-29.9-6.1-6.5-36.3 38h15.8v-1h-.2c-.4 0-.7 0-.9-.1m-13.9-4.4.5-.5 10.4-11.2-.1-26.8.1-.5.4-.4 1.3-.8.1-.1v-.9h-14.7v.9l1.4.9c.5.3.6.6.6.9v14.2h-31.2l-6.6 8.3 1 .3h.1l2-1.2c.4-.2.8-.4 1-.5s.5-.1.9-.1h32.6zm-37.9 3.3-.1-41.7.2-.5c.1-.1.2-.2.5-.3l1.3-.8.1-.1v-.9h-14.7v.9l1.4.9c.2.2.4.3.4.4l.1 41.6-.2.7c-.1.1-.2.3-.4.4l-1.3.8-.1.1v.9h14.7v-.9l-1.4-.9c-.3-.4-.5-.5-.5-.6m55.2-67.8 9.9 9.9 9.9-9.9-6.4-6.4 7.8-8.3v-38.3l-.6-.1s-.6 1.3-3.3 4.2c-1.6 1.7-2.4 2.3-2.9 2.6-.3.2-.7.3-.7.8v.5c.2 2 2.5 1.1 2.7 4.2.1 1.1.1 4.1.1 7.7 0 6.6-.1 15.1-.1 16.2l-6.7 6.9-6.7-6.9c0-1.1-.1-9.6-.1-16.2 0-3.6 0-6.6.1-7.7.1-3.1 2.4-2.3 2.7-4.2v-.5c0-.4-.3-.6-.7-.7-.4-.3-1.3-.9-2.9-2.6-2.7-2.9-3.2-4.2-3.3-4.2h-.3v39l7.8 7.7zm14.5 0-4.7 4.7-4.7-4.7 4.7-4.7zm20.7-7.1s-.1-13.7-.1-23.8c0-5 0-9.2.1-10.3.2-3.1 3.1-2.2 3.3-4.2v-.5c0-.5-.4-.6-.8-.8-.5-.3-1.6-.9-3.6-2.6-3.3-2.9-4.1-4.2-4.1-4.1l-.5-.9v47.5h5.7zm-129.4 5.6c0 .1 1.4 5.1 8.3 5.1h.4c7.2-.2 9.1-5.3 9.1-5.4v-20.6-.2c0-1-.2-4.8-3.7-4.8h-31.8v-.8c.1-3.1 2.3-2.3 2.5-4.2v-.5c0-.1 0-.1-.1-.3-.5-.3-.3 0-.8-.3-.4-.2-1.2-.8-2.5-2.3-2.6-2.9-3.2-3.3-3.2-3.4l-.5-.3v17.3h31.6c.8 0 2.6.2 2.6 2.6v14.6s0 3.4-3.4 3.4c-1.8 0-3-.7-3.8-1.4s-1.2-1.4-1.2-1.4v-8.2h-25.8v6h22.2v5.1zm65.6-4.2v.9c0 1.5.3 4.4 2.7 5.3 0 0 .8.5 2.1.5.8 0 1.8-.2 2.7-.8l.3-.2-.3-.3c-1.4-1.1-1.7-4.1-1.7-5.7v-.8h15v-7.2-8.5-16.4l-.5 1s-.7 1.3-3.9 4.1c-1.9 1.7-2.9 2.3-3.4 2.6-.4.2-.8.3-.8.8v.5c.3 2 3.1 1.2 3.2 4.2.1 1.5.1 10.1.1 10.1v3.2h-9.6v-1.6c0-3.6-1.2-11-9.8-11h-.5c-2.8.1-5.3.1-7.4.1-5.7 0-8.8-.5-9.6-2l-.2-.3-.3.2c-1 .6-1.4 1.8-1.4 3.1 0 2 1.1 4.3 3.1 4.4 1.3.1 3.3.1 5.2.1 3.5 0 7-.1 7-.1 8.1.1 7.9 3.7 7.9 5v2h-34.8l.1-4.1-.1-37.6-.5.9s-.8 1.3-4.1 4.1c-2 1.7-3 2.3-3.6 2.6-.5.2-.8.3-.8.8v.5c.3 2 3.2 1.2 3.3 4.2.2 2.3.2 16.1.2 24v5.5l.1 4.7h40.2v1.2zm20.4-37.6-.2-.2-4.1-4.2-4.4 4.4 4.4 4.4zm-9.6 0-.2-.2-4.1-4.2-4.3 4.4 4.3 4.4z"/><path d="m98 215.4-.4 1.1c-1.4 3.9-.4 4 2 4.3v.6h-7v-.6c1.2-.4 1.7-.4 2.2-1.6l5-11.6-.2-.7c.9-.3 1.6-1 2.1-1.7h.4l4.2 11c1.5 3.7 1.3 4 3.6 4.7v.6h-7.7v-.6c2.2-.4 2.3-.8 1.1-4l-.5-1.4h-4.8zm4.4-1.4-2-5.2-1.9 5.2z"/><path d="m135.5 216.4c0 4.1.3 3.9 3 4.4v.6h-8.9v-.6c2.7-.5 3-.3 3-4.4v-5.3c0-4.1-.3-3.9-3-4.4v-.6h8.9v.6c-2.7.5-3 .3-3 4.4z"/><path d="m161.4 210.4c0-3-.1-3.5-3-3.7v-.6h7c2.8 0 6.5 0 6.5 3.6 0 1.8-1.3 3.1-2.9 3.7 1.7 3.3 4 6.8 7.7 7.7l-.1.6c-2-.1-4.3.1-6.1-1.1-1.1-.8-2.4-2.9-3.1-4.2-1.1-2-.9-1.9-3-2.2v2.3c0 3.1-.1 4.1 3.5 4.4v.6h-9.4v-.6c2.7-.5 3-.3 3-4.4v-6.1zm3 3c2.1-.1 4.2-1 4.2-3.5 0-2.3-2.2-3-4.2-3z"/><path d="m196.9 221.9-.9-.2-3.7-11.9c-.5-1.6-.7-2.7-2.5-3.1v-.6h7v.6c-2.4.6-2 1.1-1.2 3.7l2 6.4 2.8-8.1c-.4-1.3-1.1-1.8-2.4-2.1v-.6h7.2v.6c-1.9.5-2.3.5-1.4 3.5l2.1 6.9.8-2.5c.4-1.3 1.7-5.3 1.7-6.4 0-1.2-1-1.2-2-1.5v-.6h6.1v.6c-2 .6-2.3 1.1-3.2 3.8l-4 11.3-.9-.2-3.5-11.2h-.1z"/><path d="m231.4 215.4-.4 1.1c-1.3 3.9-.4 4 2 4.3v.6h-7v-.6c1.2-.4 1.7-.4 2.3-1.6l5-11.6-.2-.7c.9-.3 1.6-1 2.1-1.7h.4l4.2 11c1.5 3.7 1.3 4 3.6 4.7v.6h-7.6v-.6c2.2-.4 2.3-.8 1.1-4l-.5-1.4h-5zm4.5-1.4-2.1-5.2-1.9 5.2z"/><path d="m269.6 216.4c0 3.1-.1 4.1 3.3 4.4v.6h-9.5v-.6c3-.5 3.3-.3 3.3-4.4v-1l-2.5-5.1c-1-2.1-1.3-3-3.8-3.5v-.6h7.8v.6c-1.6.4-2.3.2-1 3l2 4.1 1.2-2.5c1.9-3.9 1.5-4.1-.5-4.6v-.6h6.6v.6c-1.9.4-2.8.9-3.7 2.6l-2.8 4.6-.4.9z"/><path d="m306.8 210.7h-.7c-.4-1.9-1-3.9-3.3-3.9-1.4 0-2.3 1-2.3 2.4 0 3.7 7.4 3.4 7.4 8.1 0 3.2-3.1 4.6-6 4.6-1.6 0-3.2-.4-4.6-1.2l-.7-4.5.7-.1c.7 2.2 2.4 4.7 5 4.7 1.5 0 2.6-1 2.6-2.4 0-3.8-7.4-3.5-7.4-7.9 0-3 2.9-4.7 5.6-4.7 1.4 0 2.7.3 3.8 1z"/></g></svg>

<?xml version="1.0" encoding="UTF-8" standalone="no"?>
<!DOCTYPE svg PUBLIC "-//W3C//DTD SVG 1.1//EN" "http://www.w3.org/Graphics/SVG/1.1/DTD/svg11.dtd">
<svg width="100%" height="100%" viewBox="0 0 560 400" version="1.1" xmlns="http://www.w3.org/2000/svg" xmlns:xlink="http://www.w3.org/1999/xlink" xml:space="preserve" xmlns:serif="http://www.serif.com/" style="fill-rule:evenodd;clip-rule:evenodd;stroke-linecap:round;stroke-linejoin:round;stroke-miterlimit:1.5;">
    <g id="шаблон" transform="matrix(1.08696,0,0,1.08696,-24.3478,-17.3913)">
        <g transform="matrix(0.961274,0,0,1.09237,4.22516,8.00669)">
            <rect x="47.619" y="137.859" width="478.532" height="75.798" style="fill:none;stroke:rgb(0,224,255);stroke-width:2.24px;"/>
        </g>
        <g transform="matrix(0.976853,0,0,0.976853,4.57967,8.316)">
            <rect x="154.804" y="69.083" width="254.286" height="254.286" style="fill:none;stroke:rgb(255,173,0);stroke-width:2.35px;"/>
        </g>
        <g transform="matrix(1.15519,0,0,1.15519,-43.4523,-31.0373)">
            <circle cx="280" cy="200" r="119.461" style="fill:none;stroke:rgb(255,173,0);stroke-width:1.99px;"/>
        </g>
        <g transform="matrix(1.48581,0,0,1.09663,-45.494,-15.3517)">
            <rect x="107.614" y="112.483" width="222.908" height="167.787" style="fill:none;stroke:rgb(238,0,255);stroke-width:1.76px;"/>
        </g>
        <g transform="matrix(9.09797e-17,1.48581,-1.09663,6.71491e-17,495.352,-125.494)">
            <rect x="107.614" y="112.483" width="222.908" height="167.787" style="fill:none;stroke:rgb(0,255,159);stroke-width:1.76px;"/>
        </g>
    </g>
    <g transform="matrix(0.975345,0,0,0.975345,84.5895,59.2577)">
        <path d="M71.5,152.5L72.5,152.8L72.6,152.8L74.6,151.8C75.3,151.4 75.9,151.2 76.6,151.2L104.2,151.2L104.2,188.2L104,188.8C103.9,188.9 103.7,189.1 103.6,189.1L102.3,189.9L102.2,190L102.2,190.9L116.9,190.9L116.9,190L115.4,189.1L114.9,188.7L114.9,188.2L114.9,151.2L139.4,151.2C140.4,151.3 140.7,151.6 140.7,151.8L140.7,152.8L141.6,152.8L148.6,144.2L78.1,144.2L71.5,152.5ZM73.9,170.2L73.8,170.5L75,170.5L81.9,161.9L33.2,161.9L28.6,168.7L72.6,168.7C73.7,168.8 74,169.1 74,169.3L74,169.4L73.9,170.2ZM88.3,183.6C87.9,183.9 87.5,184 87.3,184.1L53.4,184.2C45.5,184.2 39.6,183.2 35.8,181.2C29.9,178.1 27,173.7 27,167.7C27,165 27.8,162.4 29.3,160.1C32.2,155.8 36.7,153 42.8,151.9C44.5,151.6 45.8,151.4 46.8,151.3C48.6,151.2 50.7,151.2 53,151.2L63.5,151.2C64.6,151.3 64.9,151.6 64.9,151.8L64.9,151.9L64.8,152.4L64.7,152.7L65.7,152.7L72.7,144.2L53,144.2C48.2,144.2 44.5,144.4 41.9,144.7C40.5,144.9 39.2,145.1 38,145.4C34.7,146.1 31.4,147.4 28.2,149.2C23.2,152 19.6,155.6 17.5,160C16.3,162.4 15.8,165.2 15.8,168.1C15.8,175.6 19.8,181.6 27.8,185.9C31.5,187.9 35.5,189.3 39.9,190C43.2,190.5 47.8,190.8 53.5,190.8L84.9,190.8L91.9,182.2L90.4,182.2L88.3,183.6ZM152.1,145.3L153.5,146.2C154,146.5 154.2,146.8 154.2,147.1L154.2,188.2L154,188.9C153.9,189 153.7,189.2 153.5,189.3L152.2,190.1L152.1,190.2L152.1,191.1L166.7,191.1L166.7,190.2L165.4,189.3C165.1,189.1 165,189 165,188.9L164.9,147.1L165.1,146.5L165.5,146.2L166.6,145.4L166.7,145.3L166.7,144.4L152.1,144.4L152.1,145.3ZM259.9,150.8L267,158.3L275,166.4L261.7,166.4L255.1,173.6L255.9,174L256,174.1L257.6,173.3C257.8,173.2 258,173.1 258.1,173.1L281.2,173.1L296,188.7C296.1,188.8 296.2,188.8 296.2,189L296.4,189.5C296.4,189.7 296,190 294.6,190L294.3,190L294.3,191L310.3,191L266,144.4L259.9,150.8ZM384,162.6L383.7,162.7L384,162.6C382.2,157 378.2,152.4 371.9,149C366.3,145.9 358.1,144.3 347.4,144.3L306.2,144.3L306.2,145.2L307.6,146.1C307.8,146.3 308,146.4 308,146.5L308,151.1L347.4,151.1C355.5,151.1 361.4,152.2 365,154.3C370.7,157.7 373.6,162.1 373.6,167.7C373.6,170.6 372.9,173.1 371.4,175.4C369.9,177.7 367.7,179.6 364.7,181.1C360.9,183.1 355,184.1 347.2,184.1L326.2,184.1L326.2,153.6L315.4,153.6L315.5,188.2L315.3,188.8C315.2,188.9 315.1,189 314.9,189.2L313.7,190L313.6,190.1L313.6,191L347.2,191C353.8,191 358.8,190.6 362.4,189.9C367.3,188.9 371.6,187.2 375.3,184.7C379,182.2 381.7,179.3 383.2,176.1C384.3,173.7 384.9,171.1 384.9,168.4C384.8,166.3 384.5,164.4 384,162.6M236.1,189.9C235.4,189.8 235.2,189.6 235.1,189.4L263.8,159.5L257.7,153L221.4,191L237.2,191L237.2,190L237,190C236.6,190 236.3,190 236.1,189.9M222.2,185.5L222.7,185L233.1,173.8L233,147L233.1,146.5L233.5,146.1L234.8,145.3L234.9,145.2L234.9,144.3L220.2,144.3L220.2,145.2L221.6,146.1C222.1,146.4 222.2,146.7 222.2,147L222.2,161.2L191,161.2L184.4,169.5L185.4,169.8L185.5,169.8L187.5,168.6C187.9,168.4 188.3,168.2 188.5,168.1C188.7,168 189,168 189.4,168L222,168L222.2,185.5ZM184.3,188.8L184.2,147.1L184.4,146.6C184.5,146.5 184.6,146.4 184.9,146.3L186.2,145.5L186.3,145.4L186.3,144.5L171.6,144.5L171.6,145.4L173,146.3C173.2,146.5 173.4,146.6 173.4,146.7L173.5,188.3L173.3,189C173.2,189.1 173.1,189.3 172.9,189.4L171.6,190.2L171.5,190.3L171.5,191.2L186.2,191.2L186.2,190.3L184.8,189.4C184.5,189 184.3,188.9 184.3,188.8M239.5,121L249.4,130.9L259.3,121L252.9,114.6L260.7,106.3L260.7,68L260.1,67.9C260.1,67.9 259.5,69.2 256.8,72.1C255.2,73.8 254.4,74.4 253.9,74.7C253.6,74.9 253.2,75 253.2,75.5L253.2,76C253.4,78 255.7,77.1 255.9,80.2C256,81.3 256,84.3 256,87.9C256,94.5 255.9,103 255.9,104.1L249.2,111L242.5,104.1C242.5,103 242.4,94.5 242.4,87.9C242.4,84.3 242.4,81.3 242.5,80.2C242.6,77.1 244.9,77.9 245.2,76L245.2,75.5C245.2,75.1 244.9,74.9 244.5,74.8C244.1,74.5 243.2,73.9 241.6,72.2C238.9,69.3 238.4,68 238.3,68L238,68L238,107L245.8,114.7L239.5,121ZM254,121L249.3,125.7L244.6,121L249.3,116.3L254,121ZM274.7,113.9C274.7,113.9 274.6,100.2 274.6,90.1C274.6,85.1 274.6,80.9 274.7,79.8C274.9,76.7 277.8,77.6 278,75.6L278,75.1C278,74.6 277.6,74.5 277.2,74.3C276.7,74 275.6,73.4 273.6,71.7C270.3,68.8 269.5,67.5 269.5,67.6L269,66.7L269,114.2L274.7,114.2L274.7,113.9ZM145.3,119.5C145.3,119.6 146.7,124.6 153.6,124.6L154,124.6C161.2,124.4 163.1,119.3 163.1,119.2L163.1,98.6L163.1,98.4C163.1,97.4 162.9,93.6 159.4,93.6L127.6,93.6L127.6,92.8C127.7,89.7 129.9,90.5 130.1,88.6L130.1,88.1C130.1,88 130.1,88 130,87.8C129.5,87.5 129.7,87.8 129.2,87.5C128.8,87.3 128,86.7 126.7,85.2C124.1,82.3 123.5,81.9 123.5,81.8L123,81.5L123,98.8L154.6,98.8C155.4,98.8 157.2,99 157.2,101.4L157.2,116C157.2,116 157.2,119.4 153.8,119.4C152,119.4 150.8,118.7 150,118C149.2,117.3 148.8,116.6 148.8,116.6L148.8,108.4L123,108.4L123,114.4L145.2,114.4L145.2,119.5L145.3,119.5ZM210.9,115.3L210.9,116.2C210.9,117.7 211.2,120.6 213.6,121.5C213.6,121.5 214.4,122 215.7,122C216.5,122 217.5,121.8 218.4,121.2L218.7,121L218.4,120.7C217,119.6 216.7,116.6 216.7,115L216.7,114.2L231.7,114.2L231.7,107L231.7,98.5L231.7,82.1L231.2,83.1C231.2,83.1 230.5,84.4 227.3,87.2C225.4,88.9 224.4,89.5 223.9,89.8C223.5,90 223.1,90.1 223.1,90.6L223.1,91.1C223.4,93.1 226.2,92.3 226.3,95.3C226.4,96.8 226.4,105.4 226.4,105.4L226.4,108.6L216.8,108.6L216.8,107C216.8,103.4 215.6,96 207,96L206.5,96C203.7,96.1 201.2,96.1 199.1,96.1C193.4,96.1 190.3,95.6 189.5,94.1L189.3,93.8L189,94C188,94.6 187.6,95.8 187.6,97.1C187.6,99.1 188.7,101.4 190.7,101.5C192,101.6 194,101.6 195.9,101.6C199.4,101.6 202.9,101.5 202.9,101.5C211,101.6 210.8,105.2 210.8,106.5L210.8,108.5L176,108.5L176.1,104.4L176,66.8L175.5,67.7C175.5,67.7 174.7,69 171.4,71.8C169.4,73.5 168.4,74.1 167.8,74.4C167.3,74.6 167,74.7 167,75.2L167,75.7C167.3,77.7 170.2,76.9 170.3,79.9C170.5,82.2 170.5,96 170.5,103.9L170.5,109.4L170.6,114.1L210.8,114.1L210.8,115.3L210.9,115.3ZM231.3,77.7L231.1,77.5L227,73.3L222.6,77.7L227,82.1L231.3,77.7ZM221.7,77.7L221.5,77.5L217.4,73.3L213.1,77.7L217.4,82.1L221.7,77.7Z" style="fill:rgb(161,139,93);fill-rule:nonzero;"/>
        <path d="M98,215.4L97.6,216.5C96.2,220.4 97.2,220.5 99.6,220.8L99.6,221.4L92.6,221.4L92.6,220.8C93.8,220.4 94.3,220.4 94.8,219.2L99.8,207.6L99.6,206.9C100.5,206.6 101.2,205.9 101.7,205.2L102.1,205.2L106.3,216.2C107.8,219.9 107.6,220.2 109.9,220.9L109.9,221.5L102.2,221.5L102.2,220.9C104.4,220.5 104.5,220.1 103.3,216.9L102.8,215.5L98,215.5L98,215.4ZM102.4,214L100.4,208.8L98.5,214L102.4,214Z" style="fill:rgb(161,139,93);fill-rule:nonzero;"/>
        <path d="M135.5,216.4C135.5,220.5 135.8,220.3 138.5,220.8L138.5,221.4L129.6,221.4L129.6,220.8C132.3,220.3 132.6,220.5 132.6,216.4L132.6,211.1C132.6,207 132.3,207.2 129.6,206.7L129.6,206.1L138.5,206.1L138.5,206.7C135.8,207.2 135.5,207 135.5,211.1L135.5,216.4Z" style="fill:rgb(161,139,93);fill-rule:nonzero;"/>
        <path d="M161.4,210.4C161.4,207.4 161.3,206.9 158.4,206.7L158.4,206.1L165.4,206.1C168.2,206.1 171.9,206.1 171.9,209.7C171.9,211.5 170.6,212.8 169,213.4C170.7,216.7 173,220.2 176.7,221.1L176.6,221.7C174.6,221.6 172.3,221.8 170.5,220.6C169.4,219.8 168.1,217.7 167.4,216.4C166.3,214.4 166.5,214.5 164.4,214.2L164.4,216.5C164.4,219.6 164.3,220.6 167.9,220.9L167.9,221.5L158.5,221.5L158.5,220.9C161.2,220.4 161.5,220.6 161.5,216.5L161.5,210.4L161.4,210.4ZM164.4,213.4C166.5,213.3 168.6,212.4 168.6,209.9C168.6,207.6 166.4,206.9 164.4,206.9L164.4,213.4Z" style="fill:rgb(161,139,93);fill-rule:nonzero;"/>
        <path d="M196.9,221.9L196,221.7L192.3,209.8C191.8,208.2 191.6,207.1 189.8,206.7L189.8,206.1L196.8,206.1L196.8,206.7C194.4,207.3 194.8,207.8 195.6,210.4L197.6,216.8L200.4,208.7C200,207.4 199.3,206.9 198,206.6L198,206L205.2,206L205.2,206.6C203.3,207.1 202.9,207.1 203.8,210.1L205.9,217L206.7,214.5C207.1,213.2 208.4,209.2 208.4,208.1C208.4,206.9 207.4,206.9 206.4,206.6L206.4,206L212.5,206L212.5,206.6C210.5,207.2 210.2,207.7 209.3,210.4L205.3,221.7L204.4,221.5L200.9,210.3L200.8,210.3L196.9,221.9Z" style="fill:rgb(161,139,93);fill-rule:nonzero;"/>
        <path d="M231.4,215.4L231,216.5C229.7,220.4 230.6,220.5 233,220.8L233,221.4L226,221.4L226,220.8C227.2,220.4 227.7,220.4 228.3,219.2L233.3,207.6L233.1,206.9C234,206.6 234.7,205.9 235.2,205.2L235.6,205.2L239.8,216.2C241.3,219.9 241.1,220.2 243.4,220.9L243.4,221.5L235.8,221.5L235.8,220.9C238,220.5 238.1,220.1 236.9,216.9L236.4,215.5L231.4,215.5L231.4,215.4ZM235.9,214L233.8,208.8L231.9,214L235.9,214Z" style="fill:rgb(161,139,93);fill-rule:nonzero;"/>
        <path d="M269.6,216.4C269.6,219.5 269.5,220.5 272.9,220.8L272.9,221.4L263.4,221.4L263.4,220.8C266.4,220.3 266.7,220.5 266.7,216.4L266.7,215.4L264.2,210.3C263.2,208.2 262.9,207.3 260.4,206.8L260.4,206.2L268.2,206.2L268.2,206.8C266.6,207.2 265.9,207 267.2,209.8L269.2,213.9L270.4,211.4C272.3,207.5 271.9,207.3 269.9,206.8L269.9,206.2L276.5,206.2L276.5,206.8C274.6,207.2 273.7,207.7 272.8,209.4L270,214L269.6,214.9L269.6,216.4Z" style="fill:rgb(161,139,93);fill-rule:nonzero;"/>
        <path d="M306.8,210.7L306.1,210.7C305.7,208.8 305.1,206.8 302.8,206.8C301.4,206.8 300.5,207.8 300.5,209.2C300.5,212.9 307.9,212.6 307.9,217.3C307.9,220.5 304.8,221.9 301.9,221.9C300.3,221.9 298.7,221.5 297.3,220.7L296.6,216.2L297.3,216.1C298,218.3 299.7,220.8 302.3,220.8C303.8,220.8 304.9,219.8 304.9,218.4C304.9,214.6 297.5,214.9 297.5,210.5C297.5,207.5 300.4,205.8 303.1,205.8C304.5,205.8 305.8,206.1 306.9,206.8L306.8,210.7Z" style="fill:rgb(161,139,93);fill-rule:nonzero;"/>
    </g>
</svg>
